packages/elvis-assets-icons/icons/svg/src/pin-color.svg

<svg width="24" height="24" viewBox="0 0 24 24" fill="none" xmlns="http://www.w3.org/2000/svg">
<g clip-path="url(#clip0)">
<path fill-rule="evenodd" clip-rule="evenodd" d="M12 1.5C10.2098 1.5 8.4929 2.21116 7.22703 3.47703C5.96116 4.7429 5.25 6.45979 5.25 8.25C5.25 8.95633 5.52296 10.0206 6.02181 11.3299C6.51199 12.6165 7.18898 14.0615 7.92893 15.4987C9.40891 18.3732 11.1134 21.1639 12 22.5004L11.375 22.915L12 22.5004L12.625 22.915L12 22.5004C12.8866 21.1639 14.5911 18.3732 16.0711 15.4987C16.811 14.0615 17.488 12.6165 17.9782 11.3299C18.477 10.0206 18.75 8.95633 18.75 8.25C18.75 6.45979 18.0388 4.7429 16.773 3.47703C15.5071 2.21116 13.7902 1.5 12 1.5ZM12 0C9.81196 0 7.71354 0.869194 6.16637 2.41637C4.61919 3.96354 3.75 6.06196 3.75 8.25C3.75 9.24717 4.11129 10.5284 4.62009 11.864C5.13757 13.2222 5.84165 14.7215 6.59532 16.1853C8.10259 19.1128 9.83557 21.9511 10.75 23.3296C10.8868 23.5359 11.0726 23.7051 11.2907 23.8221C11.5088 23.9392 11.7525 24.0004 12 24.0004C12.2475 24.0004 12.4912 23.9392 12.7093 23.8221C12.9274 23.7051 13.1132 23.5359 13.25 23.3296C14.1644 21.9511 15.8974 19.1128 17.4047 16.1853C18.1584 14.7215 18.8624 13.2222 19.3799 11.864C19.8887 10.5284 20.25 9.24717 20.25 8.25C20.25 6.06196 19.3808 3.96354 17.8336 2.41637C16.2865 0.869194 14.188 0 12 0Z" fill="black"/>
<path fill-rule="evenodd" clip-rule="evenodd" d="M12 5.25C10.3431 5.25 9 6.59315 9 8.25C9 9.90685 10.3431 11.25 12 11.25C13.6569 11.25 15 9.90685 15 8.25C15 6.59315 13.6569 5.25 12 5.25ZM7.5 8.25C7.5 5.76472 9.51472 3.75 12 3.75C14.4853 3.75 16.5 5.76472 16.5 8.25C16.5 10.7353 14.4853 12.75 12 12.75C9.51472 12.75 7.5 10.7353 7.5 8.25Z" fill="#29D305"/>
</g>
<defs>
<clipPath id="clip0">
<rect width="24" height="24" fill="white"/>
</clipPath>
</defs>
</svg>

<svg width="24" height="24" fill="none" xmlns="http://www.w3.org/2000/svg"><g clip-path="url(#clip0)" fill-rule="evenodd" clip-rule="evenodd"><path d="M12 1.5a6.75 6.75 0 00-6.75 6.75c0 .706.273 1.77.772 3.08.49 1.287 1.167 2.732 1.907 4.169 1.48 2.874 3.184 5.665 4.071 7.001l-.625.415L12 22.5l.625.415L12 22.5c.887-1.336 2.591-4.127 4.071-7.001.74-1.438 1.417-2.883 1.907-4.17.499-1.308.772-2.373.772-3.079A6.75 6.75 0 0012 1.5zM12 0a8.25 8.25 0 00-8.25 8.25c0 .997.361 2.278.87 3.614.518 1.358 1.222 2.857 1.975 4.321 1.508 2.928 3.24 5.766 4.155 7.145a1.5 1.5 0 002.5 0c.914-1.379 2.647-4.217 4.155-7.145.753-1.463 1.457-2.963 1.975-4.321.509-1.336.87-2.617.87-3.614A8.25 8.25 0 0012 0z" fill="#000"/><path d="M12 5.25a3 3 0 100 6 3 3 0 000-6zm-4.5 3a4.5 4.5 0 119 0 4.5 4.5 0 01-9 0z" fill="#29D305"/></g><defs><clipPath id="clip0"><path fill="#fff" d="M0 0h24v24H0z"/></clipPath></defs></svg>
